src/icons/file-binary.svg

<svg width="16" height="16" viewBox="0 0 16 16" fill="none" xmlns="http://www.w3.org/2000/svg">
<path fill-rule="evenodd" clip-rule="evenodd" d="M10.57 1.14L13.85 4.44L14 4.8V14.5L13.5 15H2.5L2 14.5V1.5L2.5 1H10.22L10.57 1.14ZM3 2V14H13V5L10 2H3ZM4.45947 6.05176C4.45947 7.33903 4.91781 7.98267 5.83447 7.98267C6.29102 7.98267 6.64103 7.809 6.88452 7.46167C7.1298 7.11434 7.25244 6.61483 7.25244 5.96313C7.25244 4.65438 6.80485 4 5.90967 4C5.4388 4 5.07894 4.17546 4.83008 4.52637C4.58301 4.87549 4.45947 5.38395 4.45947 6.05176ZM5.32153 6.03027C5.32153 5.10824 5.50505 4.64722 5.87207 4.64722C6.21582 4.64722 6.3877 5.09481 6.3877 5.98999C6.3877 6.88517 6.21224 7.33276 5.86133 7.33276C5.50146 7.33276 5.32153 6.8986 5.32153 6.03027ZM8.50854 7.91553H10.9443V7.24414H10.1521V4L8.48706 4.33569V5.02319L9.30615 4.84595V7.24414H8.50854V7.91553ZM7.17188 12.9155H4.73608V12.2441H5.53369V9.84595L4.7146 10.0232V9.33569L6.37964 9V12.2441H7.17188V12.9155ZM8.20703 10.9846C8.20703 12.2719 8.66536 12.9155 9.58203 12.9155C10.0386 12.9155 10.3886 12.7419 10.6321 12.3945C10.8774 12.0472 11 11.5477 11 10.896C11 9.58724 10.5524 8.93286 9.65723 8.93286C9.18636 8.93286 8.8265 9.10832 8.57764 9.45923C8.33057 9.80835 8.20703 10.3168 8.20703 10.9846ZM9.06909 10.9631C9.06909 10.0411 9.2526 9.58008 9.61963 9.58008C9.96338 9.58008 10.1353 10.0277 10.1353 10.9229C10.1353 11.818 9.9598 12.2656 9.60889 12.2656C9.24902 12.2656 9.06909 11.8315 9.06909 10.9631Z" fill="white"/>
</svg>

<svg width="16" height="16" xmlns="http://www.w3.org/2000/svg"><path fill-rule="evenodd" clip-rule="evenodd" d="M10.57 1.14l3.28 3.3.15.36v9.7l-.5.5h-11l-.5-.5v-13l.5-.5h7.72l.35.14zM3 2v12h10V5l-3-3H3zm1.46 4.052c0 1.287.458 1.93 1.374 1.93.457 0 .807-.173 1.05-.52.246-.348.368-.847.368-1.499C7.252 4.654 6.805 4 5.91 4c-.471 0-.831.175-1.08.526-.247.35-.37.858-.37 1.526zm.862-.022c0-.922.183-1.383.55-1.383.344 0 .516.448.516 1.343s-.176 1.343-.527 1.343c-.36 0-.54-.434-.54-1.303zm3.187 1.886h2.435v-.672h-.792V4l-1.665.336v.687l.82-.177v2.398h-.798v.672zm-1.337 5H4.736v-.672h.798V9.846l-.82.177v-.687L6.38 9v3.244h.792v.671zm1.035-1.931c0 1.287.458 1.93 1.375 1.93.457 0 .807-.173 1.05-.52.245-.348.368-.847.368-1.499 0-1.309-.448-1.963-1.343-1.963-.47 0-.83.175-1.08.526-.246.35-.37.858-.37 1.526zm.862-.022c0-.922.184-1.383.55-1.383.344 0 .516.448.516 1.343s-.175 1.343-.526 1.343c-.36 0-.54-.434-.54-1.303z"/></svg>
